T: Lighthouse Keeper's
M: 3/4
L: 1/8
K: Amaj
e2- ec e2 | d2 c2 B2 | A2- Ac e2 | f2- fg a2 |e2- ec A2 | f2- fe d2 | dc- c2 A2 | e2 ec e2 | d2 c2 B2 | A2 Ac e2 | f2 fg a2 | e2 ec A2 | f2 fe d2 | dc c2 A2 | | NNN | or | N>NN | or | N<NN | of | N2N | ~ ..
